X:160
T:Tired after my Expedition
T:Gur trom an deigh mo thurais mi
R:Slow Air
S:Simon Fraser Collection
N:No.189
O:Scottish
M:C
L:1/8
Q:1/4=100
K:G
B,|G2 F>E DB,B,z/B/|G>EF>^D [G,3E3] (E/4D/4E/4F/4)|
G>B (3A/B/G/ (3F/G/E/ DB,B,D|B,>^A,B,^D E2 EB,|
G2 F>E DB,B,z/B/|G>E F>^D [G,3E3] (E/4D/4D/4F/4)|
G>B (3A/B/G/ (3F/G/E/ DB,B,D|B,>^A,B,^D E2D||B|
eB B(e/f/4g/4) fBB^d|eB B(e/f/4g/4) [d3f3] a|g>b a/g/(f/e/) =d(GF)B|
B,>^A,B,^D E3B|eB B(e/f/4g/4) fBB^d|e>fga g2 [df] (g/4f/4g/4a/4)|
b>B (c/B/)(A/G/) (A/G/)(F/E/) B (A/4G/4F/4E/4)|B,>^A,B,^D E3||

